src/images/aaa.svg

<?xml version="1.0" encoding="UTF-8" standalone="no"?>
<svg width="1190px" height="465px" viewBox="0 0 1190 465" version="1.1" xmlns="http://www.w3.org/2000/svg" xmlns:xlink="http://www.w3.org/1999/xlink">
    <!-- Generator: Sketch 41 (35326) - http://www.bohemiancoding.com/sketch -->
    <title>aaa</title>
    <desc>Created with Sketch.</desc>
    <defs></defs>
    <g id="Page-1" stroke="none" stroke-width="1" fill="none" fill-rule="evenodd">
        <g id="Desktop-HD-Copy" transform="translate(-250.000000, -48.000000)" fill="#FFFFFF">
            <g id="aaa" transform="translate(250.000000, 48.000000)">
                <path d="M193.207791,227.838818 C189.692992,244.485882 181.933907,257.946905 169.917274,268.235163 C157.90064,278.52342 143.151748,283.674186 125.64407,283.674186 C93.2681288,283.674186 80.0445266,269.655606 85.9599996,241.63172 C88.7320486,228.502577 96.4911332,217.656762 109.22399,209.120827 C121.956847,200.584892 138.602404,196.310287 159.187189,196.310287 L199.866014,196.310287 L193.207791,227.838818 Z M254.643825,322.265108 L295.919502,126.695292 C313.665921,42.6236357 277.483387,0.594445098 187.371898,0.594445098 C140.53886,0.594445098 103.056512,8.25421862 74.8983303,23.5870408 L59.5127951,96.4810034 C93.4140262,76.78065 128.084534,66.9304733 163.511055,66.9304733 C186.695465,66.9304733 202.094264,71.7493603 209.694188,81.3738591 C217.267585,91.0116331 219.12446,105.016938 215.251549,123.416325 L210.95421,143.767162 L162.39693,143.767162 C117.778878,143.767162 81.7555042,152.754452 54.340072,170.702483 C26.9246398,188.663789 9.89444391,213.395432 3.24948429,244.923963 C-2.66598874,272.934573 1.72419416,296.139572 16.4332964,314.525683 C31.1423986,332.92507 54.2472283,342.111488 85.7477853,342.111488 C128.177378,342.111488 160.04931,327.89378 181.390108,299.431814 L172.928064,339.496279 L172.981117,339.496279 L159.054555,405.819032 L152.449386,435.661616 C149.040694,451.830774 159.359613,464.933368 175.514425,464.933368 L306.848537,464.933368 L319.316126,405.819032 L237.1892,405.819032 L254.643825,322.265108 Z" id="a"></path>
                <path d="M640.260295,227.838818 C636.745496,244.485882 628.986411,257.946905 616.969778,268.235163 C604.953144,278.52342 590.204252,283.674186 572.696574,283.674186 C540.320633,283.674186 527.09703,269.655606 533.012504,241.63172 C535.784553,228.502577 543.543637,217.656762 556.276494,209.120827 C569.009351,200.584892 585.654908,196.310287 606.239693,196.310287 L646.918518,196.310287 L640.260295,227.838818 Z M701.696329,322.265108 L742.972006,126.695292 C760.718425,42.6236357 724.53589,0.594445098 634.424402,0.594445098 C587.591363,0.594445098 550.109016,8.25421862 521.950834,23.5870408 L506.565299,96.4810034 C540.46653,76.78065 575.137038,66.9304733 610.563559,66.9304733 C633.747969,66.9304733 649.146768,71.7493603 656.746692,81.3738591 C664.320089,91.0116331 666.176964,105.016938 662.304053,123.416325 L658.006714,143.767162 L609.449434,143.767162 C564.831382,143.767162 528.808008,152.754452 501.392576,170.702483 C473.977144,188.663789 456.946948,213.395432 450.301988,244.923963 C444.386515,272.934573 448.776698,296.139572 463.4858,314.525683 C478.194903,332.92507 501.299732,342.111488 532.800289,342.111488 C575.229882,342.111488 607.101814,327.89378 628.442612,299.431814 L619.980568,339.496279 L620.033621,339.496279 L606.107059,405.819032 L599.50189,435.661616 C596.093198,451.830774 606.412117,464.933368 622.566929,464.933368 L753.901041,464.933368 L766.36863,405.819032 L684.241704,405.819032 L701.696329,322.265108 Z" id="a"></path>
                <path d="M1087.3128,227.838818 C1083.798,244.485882 1076.03892,257.946905 1064.02228,268.235163 C1052.00565,278.52342 1037.25676,283.674186 1019.74908,283.674186 C987.373137,283.674186 974.149534,269.655606 980.065007,241.63172 C982.837056,228.502577 990.596141,217.656762 1003.329,209.120827 C1016.06185,200.584892 1032.70741,196.310287 1053.2922,196.310287 L1093.97102,196.310287 L1087.3128,227.838818 Z M1148.74883,322.265108 L1190.02451,126.695292 C1207.77093,42.6236357 1171.58839,0.594445098 1081.47691,0.594445098 C1034.64387,0.594445098 997.16152,8.25421862 969.003338,23.5870408 L953.617803,96.4810034 C987.519034,76.78065 1022.18954,66.9304733 1057.61606,66.9304733 C1080.80047,66.9304733 1096.19927,71.7493603 1103.7992,81.3738591 C1111.37259,91.0116331 1113.22947,105.016938 1109.35656,123.416325 L1105.05922,143.767162 L1056.50194,143.767162 C1011.88389,143.767162 975.860512,152.754452 948.44508,170.702483 C921.029648,188.663789 903.999452,213.395432 897.354492,244.923963 C891.439019,272.934573 895.829202,296.139572 910.538304,314.525683 C925.247406,332.92507 948.352236,342.111488 979.852793,342.111488 C1022.28239,342.111488 1054.15432,327.89378 1075.49512,299.431814 L1067.03307,339.496279 L1067.08613,339.496279 L1053.15956,405.819032 L1046.55439,435.661616 C1043.1457,451.830774 1053.46462,464.933368 1069.61943,464.933368 L1200.95355,464.933368 L1213.42113,405.819032 L1131.29421,405.819032 L1148.74883,322.265108 Z" id="a"></path>
            </g>
        </g>
    </g>
</svg>

<svg width="1190" height="465" viewBox="0 0 1190 465" xmlns="http://www.w3.org/2000/svg">
    <title>aaa</title>
    <path d="M193.208 227.84c-3.515 16.646-11.274 30.107-23.29 40.395-12.017 10.288-26.766 15.44-44.274 15.44-32.376 0-45.6-14.02-39.684-42.043 2.772-13.13 10.53-23.975 23.264-32.51 12.733-8.537 29.378-12.812 49.963-12.812h40.68l-6.66 31.53zm61.436 94.425l41.276-195.57C313.666 42.625 277.483.595 187.372.595c-46.833 0-84.315 7.66-112.474 22.992L59.513 96.48c33.9-19.7 68.572-29.55 103.998-29.55 23.19 0 38.59 4.82 46.19 14.444 7.58 9.638 9.43 23.643 5.56 42.042l-4.3 20.35H162.4c-44.62 0-80.64 8.988-108.058 26.936-27.414 17.962-44.445 42.693-51.09 74.222-5.915 28.01-1.525 51.216 13.184 69.602 14.71 18.4 37.814 27.585 69.315 27.585 42.43 0 74.3-14.21 95.64-42.67l-8.46 40.07h.06l-13.92 66.32-6.606 29.844c-3.41 16.17 6.91 29.27 23.065 29.27h131.33l12.466-59.113h-82.13l17.456-83.555zM640.26 227.84c-3.515 16.646-11.274 30.107-23.29 40.395-12.017 10.288-26.766 15.44-44.273 15.44-32.376 0-45.6-14.02-39.684-42.043 2.772-13.13 10.53-23.975 23.263-32.51 12.733-8.537 29.38-12.812 49.964-12.812h40.68l-6.66 31.53zm61.436 94.425l41.276-195.57C760.718 42.625 724.536.595 634.424.595c-46.833 0-84.315 7.66-112.473 22.992L506.57 96.48c33.902-19.7 68.572-29.55 104-29.55 23.183 0 38.582 4.82 46.182 14.444 7.572 9.638 9.43 23.643 5.556 42.042l-4.297 20.35h-48.56c-44.62 0-80.64 8.988-108.05 26.936-27.413 17.962-44.443 42.693-51.09 74.222-5.913 28.01-1.523 51.216 13.186 69.602 14.71 18.4 37.814 27.585 69.314 27.585 42.43 0 74.3-14.21 95.642-42.67l-8.466 40.06h.057l-13.925 66.32-6.605 29.85c-3.41 16.17 6.91 29.27 23.063 29.27H753.9l12.47-59.113h-82.13l17.454-83.555zm385.617-94.425c-3.515 16.646-11.274 30.107-23.29 40.395-12.017 10.288-26.766 15.44-44.274 15.44-32.38 0-45.6-14.02-39.69-42.043 2.77-13.13 10.53-23.975 23.26-32.51 12.73-8.537 29.372-12.812 49.96-12.812h40.68l-6.66 31.53zm61.436 94.425l41.27-195.57c17.74-84.07-18.44-126.1-108.55-126.1-46.84 0-84.32 7.66-112.48 22.992L953.62 96.48c33.9-19.7 68.572-29.55 103.998-29.55 23.184 0 38.583 4.82 46.183 14.444 7.57 9.638 9.43 23.643 5.56 42.042l-4.3 20.35h-48.56c-44.61 0-80.64 8.988-108.05 26.936-27.413 17.962-44.444 42.693-51.09 74.222-5.914 28.01-1.524 51.216 13.185 69.602 14.71 18.4 37.814 27.585 69.315 27.585 42.43 0 74.3-14.21 95.646-42.67l-8.46 40.07h.053l-13.927 66.323-6.605 29.843c-3.41 16.17 6.91 29.27 23.063 29.27h131.334l12.467-59.113h-82.13l17.455-83.558z" fill="#FFF" fill-rule="evenodd"/>
</svg>
